plasma/desktoptheme/Arc-Dark/icons/kmail.svg

<?xml version="1.0" encoding="UTF-8"?>
<svg width="32" height="32" version="1.1" xmlns="http://www.w3.org/2000/svg">
 <g id="22-22-kmail" transform="translate(-435 -125)">
  <path d="m472 140c-1.108 0-2 0.892-2 2v8c0 1.108 0.892 2 2 2h12c1.108 0 2-0.892 2-2v-8c0-1.108-0.892-2-2-2zm0 2 6 3 6-3v2l-6 3-6-3z" fill="#d3dae3"/>
  <path d="m467 135h22v22h-22z" opacity=".001"/>
 </g>
 <g id="kmail">
  <path d="m7 7c-1.662 0-3 1.338-3 3v12c0 1.662 1.338 3 3 3h18c1.662 0 3-1.338 3-3v-12c0-1.662-1.338-3-3-3zm0 3 9 4.5 9-4.5v3l-9 4.5-9-4.5z" fill="#d3dae3"/>
  <path d="m-5.909e-7 2.5e-6h32v32h-32z" opacity=".001"/>
 </g>
</svg>

<svg xmlns="http://www.w3.org/2000/svg" width="32" height="32" version="1.1">
 <g id="22-22-kmail" transform="translate(-435.0002,-125)">
  <path style="fill:#d3dae3" d="m 472.00009,140 c -1.108,0 -2,0.892 -2,2 v 8 c 0,1.108 0.892,2 2,2 h 12 c 1.108,0 2,-0.892 2,-2 v -8 c 0,-1.108 -0.892,-2 -2,-2 z m 0,2 6,3 6,-3 v 2 l -6,3 -6,-3 z"/>
  <path style="opacity:0.001" d="m 467.0002,135 h 22 v 22 h -22 z"/>
 </g>
 <g id="kmail">
  <path style="fill:#d3dae3" d="M 7,7 C 5.338,7 4,8.3380001 4,10 v 12 c 0,1.662 1.338,3 3,3 h 18 c 1.661999,0 3,-1.338 3,-3 V 10 C 28,8.338 26.661999,7 25,7 Z m 0,3 9,4.5 9,-4.5 v 3 L 16,17.500001 7,13 Z"/>
  <path style="opacity:0.001" d="M -5.9089996e-7,2.5e-6 H 32 V 32.000003 H -5.9089996e-7 Z"/>
 </g>
</svg>
